img/svg/cafe.svg

<svg width="51" height="49" viewBox="0 0 51 49" fill="none" xmlns="http://www.w3.org/2000/svg">
<path d="M38.251 33.0625V32.2656C38.251 30.1171 36.5382 28.3719 34.408 28.2955L35.0526 24.4279C35.0916 24.1968 35.0262 23.9606 34.8744 23.7816C34.7235 23.603 34.5009 23.4999 34.2667 23.4999H33.6935L34.0923 21.9062H35.0635C35.504 21.9062 35.8604 21.5494 35.8604 21.1093C35.8604 20.6692 35.504 20.3124 35.0635 20.3124H33.4698C33.104 20.3124 32.7857 20.5614 32.697 20.9159L32.051 23.4999H30.2823C30.048 23.4999 29.8255 23.603 29.6745 23.7816C29.5228 23.9606 29.4574 24.1968 29.4963 24.4279L30.1385 28.2812H27.8916V19.3729C28.1416 19.4619 28.4084 19.5155 28.6885 19.5155C29.3002 19.5155 29.8589 19.2844 30.2823 18.9054C30.7056 19.2844 31.2644 19.5155 31.876 19.5155C32.4877 19.5155 33.0464 19.2844 33.4698 18.9054C33.8931 19.2844 34.4519 19.5155 35.0635 19.5155C35.6752 19.5155 36.2339 19.2844 36.6573 18.9054C37.0806 19.2844 37.6394 19.5155 38.251 19.5155C38.8627 19.5155 39.4215 19.2844 39.8448 18.9054C40.2681 19.2844 40.8269 19.5155 41.4385 19.5155C42.7568 19.5155 43.8292 18.4432 43.8292 17.1249V15.5312C43.8292 8.9402 38.4674 3.57801 31.876 3.57801H29.5578H28.6885V2.78113C28.6885 1.46286 27.6162 0.390503 26.2979 0.390503H24.7041C23.3859 0.390503 22.3135 1.46286 22.3135 2.78113V3.57801H21.4443H19.126C12.5346 3.57801 7.17285 8.9402 7.17285 15.5312V17.1249C7.17285 18.4432 8.24521 19.5155 9.56348 19.5155C10.1751 19.5155 10.7339 19.2844 11.1572 18.9054C11.5806 19.2844 12.1393 19.5155 12.751 19.5155C13.3627 19.5155 13.9214 19.2844 14.3447 18.9054C14.7681 19.2844 15.3268 19.5155 15.9385 19.5155C16.5502 19.5155 17.1089 19.2844 17.5322 18.9054C17.9556 19.2844 18.5143 19.5155 19.126 19.5155C19.7377 19.5155 20.2964 19.2844 20.7198 18.9054C21.1431 19.2844 21.7018 19.5155 22.3135 19.5155C22.5936 19.5155 22.8604 19.4619 23.1104 19.3729V28.2812H20.8635L21.5057 24.4279C21.5446 24.1968 21.4793 23.9606 21.3275 23.7816C21.1766 23.603 20.954 23.4999 20.7198 23.4999H18.951L18.305 20.9159C18.2163 20.5614 17.898 20.3124 17.5322 20.3124H15.9385C15.498 20.3124 15.1416 20.6692 15.1416 21.1093C15.1416 21.5494 15.498 21.9062 15.9385 21.9062H16.9097L17.3086 23.4999H16.7354C16.5011 23.4999 16.2786 23.603 16.1276 23.7816C15.9758 23.9606 15.9105 24.1968 15.9494 24.4279L16.594 28.2955C14.4638 28.3719 12.751 30.1171 12.751 32.2656V33.0625C12.751 33.5025 13.1074 33.8593 13.5479 33.8593H23.1104V48.2031C23.1104 48.6432 23.4668 49 23.9073 49H27.0948C27.5352 49 27.8916 48.6432 27.8916 48.2031V33.8593H37.4542C37.8946 33.8593 38.251 33.5025 38.251 33.0625ZM33.3258 25.0937L32.7951 28.2812H31.7539L31.2231 25.0937H33.3258ZM42.2354 15.5312V17.1249C42.2354 17.5642 41.8782 17.9218 41.4385 17.9218C40.9989 17.9218 40.6417 17.5642 40.6417 17.1249C40.6417 16.6848 40.2853 16.328 39.8448 16.328C39.4043 16.328 39.0479 16.6848 39.0479 17.1249C39.0479 17.5642 38.6907 17.9218 38.251 17.9218C37.8114 17.9218 37.4542 17.5642 37.4542 17.1249V15.5312C37.4542 11.2154 35.9302 7.43798 33.6592 5.3364C38.5228 6.18542 42.2354 10.4279 42.2354 15.5312ZM29.5578 5.17176C33.0332 5.17176 35.8604 9.81878 35.8604 15.5312V17.1249C35.8604 17.5642 35.5032 17.9218 35.0635 17.9218C34.6239 17.9218 34.2667 17.5642 34.2667 17.1249C34.2667 16.6848 33.9102 16.328 33.4698 16.328C33.0293 16.328 32.6729 16.6848 32.6729 17.1249C32.6729 17.5642 32.3157 17.9218 31.876 17.9218C31.4363 17.9218 31.0792 17.5642 31.0792 17.1249V15.5312C31.0792 11.5608 30.5072 7.38336 29.2872 5.17176H29.5578ZM23.9073 2.78113C23.9073 2.34184 24.2645 1.98426 24.7041 1.98426H26.2979C26.7376 1.98426 27.0948 2.34184 27.0948 2.78113V3.57801H23.9073V2.78113ZM13.5479 15.5312V17.1249C13.5479 17.5642 13.1907 17.9218 12.751 17.9218C12.3113 17.9218 11.9541 17.5642 11.9541 17.1249C11.9541 16.6848 11.5977 16.328 11.1572 16.328C10.7168 16.328 10.3604 16.6848 10.3604 17.1249C10.3604 17.5642 10.0032 17.9218 9.56348 17.9218C9.1238 17.9218 8.76661 17.5642 8.76661 17.1249V15.5312C8.76661 10.4279 12.4792 6.18542 17.3429 5.3364C15.0718 7.43798 13.5479 11.2154 13.5479 15.5312ZM19.9229 15.5312V17.1249C19.9229 17.5642 19.5657 17.9218 19.126 17.9218C18.6863 17.9218 18.3291 17.5642 18.3291 17.1249C18.3291 16.6848 17.9727 16.328 17.5322 16.328C17.0918 16.328 16.7354 16.6848 16.7354 17.1249C16.7354 17.5642 16.3782 17.9218 15.9385 17.9218C15.4988 17.9218 15.1416 17.5642 15.1416 17.1249V15.5312C15.1416 9.81878 17.9688 5.17176 21.4443 5.17176H21.7149C20.4949 7.38336 19.9229 11.5608 19.9229 15.5312ZM22.3135 17.9218C21.8738 17.9218 21.5166 17.5642 21.5166 17.1249V15.5312C21.5166 8.80207 23.1104 5.17176 23.7625 5.17176H27.2395C27.8916 5.17176 29.4854 8.80207 29.4854 15.5312V17.1249C29.4854 17.5642 29.1282 17.9218 28.6885 17.9218C28.2488 17.9218 27.8916 17.5642 27.8916 17.1249C27.8916 16.6848 27.5352 16.328 27.0948 16.328C26.6543 16.328 26.2979 16.6848 26.2979 17.1249C26.2979 17.5642 25.9407 17.9218 25.501 17.9218C25.0613 17.9218 24.7041 17.5642 24.7041 17.1249C24.7041 16.6848 24.3477 16.328 23.9073 16.328C23.4668 16.328 23.1104 16.6848 23.1104 17.1249C23.1104 17.5642 22.7532 17.9218 22.3135 17.9218ZM26.2979 19.379V28.2812H24.7041V19.379C24.7635 19.4 24.8277 19.4103 24.8895 19.4263C24.9551 19.4438 25.0189 19.4647 25.0865 19.4766C25.1169 19.4817 25.1481 19.4814 25.1787 19.4853C25.285 19.4998 25.3909 19.5155 25.501 19.5155C25.6112 19.5155 25.7173 19.4998 25.8236 19.4852C25.8541 19.4813 25.8853 19.4817 25.9155 19.4766C25.9832 19.4647 26.0471 19.4438 26.1128 19.4262C26.1745 19.4102 26.2387 19.4 26.2979 19.379ZM19.7789 25.0937L19.2482 28.2812H18.2069L17.6762 25.0937H19.7789ZM26.2979 47.4062H24.7041V33.8593H26.2979V47.4062ZM27.0948 32.2656H23.9073H14.3447C14.3447 30.9473 15.4171 29.8749 16.7354 29.8749H17.5322H19.9229H23.9073H27.0948H31.0792H33.4698H34.2667C35.5849 29.8749 36.6573 30.9473 36.6573 32.2656H27.0948Z" fill="white"/>
<path d="M48.6083 22.7031C47.29 22.7031 46.2177 23.7754 46.2177 25.0937V34.6562H38.6964C37.5976 34.6562 36.6435 35.401 36.3773 36.4671L35.8824 38.4472C35.8225 38.6853 35.8762 38.9375 36.0272 39.1309C36.1781 39.3242 36.41 39.4375 36.6552 39.4375H37.452V48.2031C37.452 48.6432 37.8085 49 38.2489 49H41.4364C41.8769 49 42.2333 48.6432 42.2333 48.2031V39.4375H46.2177V48.2031C46.2177 48.6432 46.5741 49 47.0146 49H50.2021C50.6425 49 50.9989 48.6432 50.9989 48.2031V25.0937C50.9989 23.7754 49.9266 22.7031 48.6083 22.7031ZM40.6395 47.4062H39.0458V39.4375H40.6395V47.4062ZM46.2177 37.8437H41.4364H38.2489H37.6754L37.9228 36.8539C38.0123 36.4982 38.3298 36.25 38.6964 36.25H46.2177V37.8437ZM49.4052 47.4062H47.8114V38.6406V35.4531V25.0937C47.8114 24.6544 48.1686 24.2968 48.6083 24.2968C49.048 24.2968 49.4052 24.6544 49.4052 25.0937V47.4062Z" fill="white"/>
<path d="M14.6216 36.4671C14.3555 35.401 13.4014 34.6562 12.3026 34.6562H4.78126V25.0937C4.78126 23.7754 3.7089 22.7031 2.39063 22.7031C1.07236 22.7031 0 23.7754 0 25.0937V48.2031C0 48.6432 0.356416 49 0.796877 49H3.98438C4.42484 49 4.78126 48.6432 4.78126 48.2031V39.4375H8.76564V48.2031C8.76564 48.6432 9.12206 49 9.56252 49H12.75C13.1905 49 13.5469 48.6432 13.5469 48.2031V39.4375H14.3438C14.5889 39.4375 14.8208 39.3242 14.9718 39.1309C15.1228 38.9375 15.1765 38.6853 15.1165 38.4472L14.6216 36.4671ZM3.18751 35.4531V38.6406V47.4062H1.59375V25.0937C1.59375 24.6544 1.95095 24.2968 2.39063 24.2968C2.83031 24.2968 3.18751 24.6544 3.18751 25.0937V35.4531ZM11.9532 47.4062H10.3594V39.4375H11.9532V47.4062ZM12.75 37.8437H9.56252H4.78126V36.25H12.3026C12.6691 36.25 12.9866 36.4982 13.0761 36.8539L13.3236 37.8437H12.75Z" fill="white"/>
</svg>

<svg width="51" height="49" viewBox="0 0 51 49" fill="none" xmlns="http://www.w3.org/2000/svg"><path d="M38.251 33.063v-.797c0-2.149-1.713-3.894-3.843-3.97l.645-3.868a.795.795 0 00-.786-.928h-.574l.4-1.594h.97a.797.797 0 100-1.594H33.47a.797.797 0 00-.773.604l-.646 2.584h-1.769a.796.796 0 00-.786.928l.643 3.853h-2.247v-8.908a2.365 2.365 0 002.39-.468 2.383 2.383 0 003.188 0 2.383 2.383 0 003.187 0 2.383 2.383 0 003.188 0c.423.38.982.61 1.593.61a2.393 2.393 0 002.391-2.39V15.53c0-6.59-5.362-11.953-11.953-11.953h-3.188V2.78a2.393 2.393 0 00-2.39-2.39h-1.594a2.393 2.393 0 00-2.39 2.39v.797h-3.188c-6.591 0-11.953 5.362-11.953 11.953v1.594a2.393 2.393 0 002.39 2.39c.612 0 1.17-.23 1.594-.61a2.383 2.383 0 003.188 0 2.383 2.383 0 003.187 0 2.383 2.383 0 003.188 0 2.363 2.363 0 002.39.468v8.908h-2.247l.643-3.853a.795.795 0 00-.786-.928h-1.77l-.646-2.584a.797.797 0 00-.773-.604h-1.594a.797.797 0 100 1.594h.972l.399 1.594h-.574a.796.796 0 00-.786.928l.645 3.867c-2.13.077-3.843 1.822-3.843 3.97v.797c0 .44.356.797.797.797h9.562v14.344c0 .44.357.797.797.797h3.188c.44 0 .797-.357.797-.797V33.86h9.562c.44 0 .797-.357.797-.797zm-4.925-7.97l-.53 3.188h-1.042l-.53-3.187h2.102zm8.91-9.562v1.594a.798.798 0 01-1.594 0 .797.797 0 10-1.594 0 .798.798 0 01-1.594 0V15.53c0-4.316-1.524-8.093-3.795-10.195 4.864.85 8.576 5.092 8.576 10.195zM29.557 5.171c3.475 0 6.302 4.648 6.302 10.36v1.594a.798.798 0 01-1.593 0 .797.797 0 10-1.594 0 .798.798 0 01-1.594 0V15.53c0-3.97-.572-8.148-1.792-10.36h.27zm-5.65-2.39c0-.44.357-.797.796-.797h1.594c.44 0 .797.358.797.797v.797h-3.188v-.797zm-10.36 12.75v1.594a.798.798 0 01-1.594 0 .797.797 0 10-1.594 0 .798.798 0 01-1.593 0V15.53c0-5.103 3.712-9.346 8.576-10.195-2.271 2.102-3.795 5.88-3.795 10.195zm6.375 0v1.594a.798.798 0 01-1.594 0 .797.797 0 10-1.594 0 .798.798 0 01-1.593 0V15.53c0-5.712 2.827-10.36 6.302-10.36h.27c-1.22 2.212-1.791 6.39-1.791 10.36zm2.39 2.39a.798.798 0 01-.796-.796V15.53c0-6.729 1.593-10.36 2.245-10.36h3.477c.653 0 2.246 3.631 2.246 10.36v1.594a.798.798 0 01-1.593 0 .797.797 0 10-1.594 0 .798.798 0 01-1.594 0 .797.797 0 10-1.594 0c0 .44-.357.797-.796.797zm3.985 1.458v8.902h-1.594V19.38c.06.021.124.031.186.047.065.018.129.039.197.05.03.006.061.005.092.01.106.014.212.03.322.03.11 0 .216-.016.323-.03.03-.005.061-.004.091-.01.068-.011.132-.032.198-.05.061-.016.126-.026.185-.047zm-6.52 5.715l-.53 3.187h-1.041l-.53-3.187h2.102zm6.52 22.312h-1.594V33.86h1.594v13.547zm.797-15.14h-12.75a2.393 2.393 0 012.39-2.391h17.533a2.393 2.393 0 012.39 2.39h-9.562z" fill="#fff"/><path d="M48.608 22.703a2.393 2.393 0 00-2.39 2.39v9.563h-7.522a2.387 2.387 0 00-2.319 1.811l-.495 1.98a.796.796 0 00.773.99h.797v8.766c0 .44.357.797.797.797h3.187c.44 0 .797-.357.797-.797v-8.766h3.985v8.766c0 .44.356.797.797.797h3.187c.44 0 .797-.357.797-.797v-23.11a2.393 2.393 0 00-2.39-2.39zM40.64 47.406h-1.594v-7.968h1.593v7.968zm5.578-9.562h-8.543l.248-.99a.797.797 0 01.773-.604h7.522v1.594zm3.187 9.562h-1.594V25.093a.798.798 0 011.594 0v22.313zM14.622 36.467a2.387 2.387 0 00-2.32-1.81h-7.52v-9.563a2.393 2.393 0 00-2.391-2.39A2.393 2.393 0 000 25.093v23.11c0 .44.356.796.797.796h3.187c.44 0 .797-.357.797-.797v-8.766h3.985v8.766c0 .44.356.797.797.797h3.187c.44 0 .797-.357.797-.797v-8.766h.797a.798.798 0 00.773-.99l-.495-1.98zM3.188 35.453v11.953H1.594V25.094a.798.798 0 011.594 0v10.36zm8.765 11.953H10.36v-7.968h1.594v7.968zm.797-9.562H4.781V36.25h7.522c.366 0 .684.248.773.604l.248.99h-.574z" fill="#fff"/></svg>
